fs/building_skyscraper_20_filled.svg

<svg viewBox="0 0 20 20" fill="none" xmlns="http://www.w3.org/2000/svg" height="1em" width="1em">
  <path d="M7 2.49609C7 2.21995 7.22386 1.99609 7.5 1.99609H8.5C8.77614 1.99609 9 2.21995 9 2.49609V3.00049H7V2.49609ZM5.45836 4.00049C5.2017 4.02165 5 4.23666 5 4.49878V5.00049H11V4.49878C11 4.23666 10.7983 4.02165 10.5416 4.00049H5.45836ZM13.75 15.0005C14.1642 15.0005 14.5 14.6647 14.5 14.2505C14.5 13.8363 14.1642 13.5005 13.75 13.5005C13.3358 13.5005 13 13.8363 13 14.2505C13 14.6647 13.3358 15.0005 13.75 15.0005ZM14.5 11.7505C14.5 12.1647 14.1642 12.5005 13.75 12.5005C13.3358 12.5005 13 12.1647 13 11.7505C13 11.3363 13.3358 11.0005 13.75 11.0005C14.1642 11.0005 14.5 11.3363 14.5 11.7505ZM5 6.00049H11V6.01805C11.5978 6.36386 12 7.01021 12 7.75049V8.00049H12.5C14.9853 8.00049 17 10.0152 17 12.5005V16.5005C17 16.7766 16.7761 17.0005 16.5 17.0005H11.5C11.486 17.0005 11.4721 16.9999 11.4584 16.9988H9V14.5005C9 14.2243 8.77614 14.0005 8.5 14.0005H7.5C7.22386 14.0005 7 14.2243 7 14.5005V16.9988H4.5C4.22386 16.9988 4 16.7749 4 16.4988V7.75049C4 7.01021 4.4022 6.36386 5 6.01805V6.00049ZM12 16.0005H16V12.5005C16 10.5675 14.433 9.00049 12.5 9.00049H12V16.0005ZM7.5 8.75049C7.5 8.33627 7.16421 8.00049 6.75 8.00049C6.33579 8.00049 6 8.33627 6 8.75049C6 9.1647 6.33579 9.50049 6.75 9.50049C7.16421 9.50049 7.5 9.1647 7.5 8.75049ZM9.25 9.50049C9.66421 9.50049 10 9.1647 10 8.75049C10 8.33627 9.66421 8.00049 9.25 8.00049C8.83579 8.00049 8.5 8.33627 8.5 8.75049C8.5 9.1647 8.83579 9.50049 9.25 9.50049ZM7.5 11.2505C7.5 10.8363 7.16421 10.5005 6.75 10.5005C6.33579 10.5005 6 10.8363 6 11.2505C6 11.6647 6.33579 12.0005 6.75 12.0005C7.16421 12.0005 7.5 11.6647 7.5 11.2505ZM9.25 12.0005C9.66421 12.0005 10 11.6647 10 11.2505C10 10.8363 9.66421 10.5005 9.25 10.5005C8.83579 10.5005 8.5 10.8363 8.5 11.2505C8.5 11.6647 8.83579 12.0005 9.25 12.0005Z" fill="#212121"/>
</svg>

<svg viewBox="0 0 20 20" fill="none" xmlns="http://www.w3.org/2000/svg" height="1em" width="1em">
  <path d="M7 2.496a.5.5 0 0 1 .5-.5h1a.5.5 0 0 1 .5.5V3H7v-.504ZM5.458 4A.5.5 0 0 0 5 4.5V5h6v-.5a.5.5 0 0 0-.458-.5H5.458Zm8.292 11a.75.75 0 1 0 0-1.5.75.75 0 0 0 0 1.5Zm.75-3.25a.75.75 0 1 1-1.5 0 .75.75 0 0 1 1.5 0ZM5 6h6v.018a2 2 0 0 1 1 1.732V8h.5a4.5 4.5 0 0 1 4.5 4.5v4a.5.5 0 0 1-.5.5h-5a.52.52 0 0 1-.042-.001H9V14.5a.5.5 0 0 0-.5-.5h-1a.5.5 0 0 0-.5.5v2.498H4.5a.5.5 0 0 1-.5-.5V7.75a2 2 0 0 1 1-1.732V6Zm7 10h4v-3.5A3.5 3.5 0 0 0 12.5 9H12v7ZM7.5 8.75a.75.75 0 1 0-1.5 0 .75.75 0 0 0 1.5 0Zm1.75.75a.75.75 0 1 0 0-1.5.75.75 0 0 0 0 1.5ZM7.5 11.25a.75.75 0 1 0-1.5 0 .75.75 0 0 0 1.5 0Zm1.75.75a.75.75 0 1 0 0-1.5.75.75 0 0 0 0 1.5Z" fill="#212121"/>
</svg>
